X:1
T:Growing Dearer Each Day
T:Growing Dearer Each Day
T:Charles Hutchinson Gabriel
T:Charles Hutchinson Gabriel, 1907
T:Public Domain Courtesy of the Cyber Hymnal™
T:Public Domain Courtesy of the Cyber Hymnal™
C:Charles Hutchinson Gabriel
Z:Public Domain
Z:Courtesy of the Cyber Hymnal™
%%score ( 1 2 ) ( 3 4 )
L:1/8
Q:1/4=110
M:9/8
K:Bb
V:1 treble 
V:2 treble 
V:3 bass 
V:4 bass 
V:1
 [DF]3 | [DB]4 [DA][DB] [Ec][EB][EG] | [DB]3 [DF]3 [B,D]3 | [DF]4 [EG][DF] [CE][B,D][A,C] | %4
w: 1.~How|sweet is the love of my|Sav- ior! ’Tis|bound- less and deep as the|
w: 2.~I|know He is ev- er be-|side me! E-|ter- ni- ty on- ly will|
w: 3.~Wher-|ev- er He leads I will|fol- low, Thru|sor- row, or sha- dow or|
w: 4.~Some|day face to face I shall|see Him, And|oh, what a joy it will|
 [B,D]6 [DF]3 | [DB]4 [DA][DB] [Ec][Fd][Fc] | [GB]3 [EG]3 [FA]2 [FB] | %7
w: sea; And|best of it all, it is|dai- ly Grow- ing|
w: prove The|height and the depth of His|mer- cy, And the|
w: sun; And|though I be tried in the|fur- nace, I can|
w: be To|know that His love, now so|pre- cious, Will for-|
 [=Ec]4 [Ed][Ec] [EB][EA][EG] | F6- !fermata![EF]3 ||"^Refrain" [Fd]4 [=E^c][Fd] [_E=c][DB][DF] | %10
w: sweet- er and sweet- er to|me. *||
w: breadth of His in- fi- nite|love. Sweet-|* er and sweet- er to|
w: say, “Lord, Thy will be it|done.” *||
w: ev- er grow sweet- er to|me! *||
 [EG]6- [EG]3 | c3- cdc | BA[EG] | F3- [EF]3 F3 | [Fd]4 [=E^c][Fd] [_E=c][DB][DF] | %15
w: |||||
w: me, *|Dear- * er and|dear- er each|day; Oh, won-|der- ful love of my Sav-|
w: |||||
w: |||||
 [EG]3 !fermata![GB]3 [GB]2 [_Gc] | [Fd]4 [Ec][DB] [Ec][DB][CA] | [DB]6 |] %18
w: |||
w: ior, Grow- ing dear-|er each step of my way!||
w: |||
w: |||
V:2
 x3 | x9 | x9 | x9 | x9 | x9 | x9 | x9 | C3 D3 x3 || x9 | x9 | (=EEE E3) | E2 x | (FCD x2 E2 F) x | %14
 x9 | x9 | x9 | x6 |] %18
V:3
 [B,,B,]3 | [B,,F,]4 [B,,F,][B,,F,] [B,,G,][B,,G,][B,,B,] | [B,,F,]3 [B,,B,]3 [B,,F,]3 | %3
w: ~|~ ~ ~ ~ ~ ~|~ ~ ~|
 [F,,F,]4 [F,,F,][F,,F,] [F,,F,][F,,F,][F,,F,] | [B,,F,]6 [B,,B,]3 | %5
w: ~ ~ ~ ~ ~ ~|~ ~|
 [B,,F,]4 [B,,F,][B,,F,] [B,,B,][B,,B,][D,B,] | [E,B,]3 [E,B,]3 [E,C]2 [D,B,] | %7
w: ~ ~ ~ ~ ~ ~|~ ~ ~ ~|
 [C,B,]4 [C,B,][C,G,] [C,D][C,C][C,B,] | (A,3 B,3 !fermata![F,C]3) || %9
w: ~ ~ ~ ~ ~ ~|~ * *|
 [B,,B,][B,,B,][B,,B,] [B,,B,]3 [B,,B,]2 [B,,B,] | [E,B,][E,B,][E,B,] ([E,B,]3 [D,=B,]3) | %11
w: Sweet- er to me, grow- ing|sweet- er to me, *|
 [C,B,][C,B,][C,B,] [C,B,]3 | [C,G,]2 [C,B,] | [F,A,][F,A,][F,B,] [F,C]3 [F,A,]3 | %14
w: Dear- er each day,|grow- ing|* dear- er each day;|
 [B,,B,][B,,B,][B,,B,] [B,,B,]3 [B,,B,][B,,B,][B,,B,] | [E,B,]3 !fermata![E,B,]3 [E,B,]2 [E,B,] | %16
w: Oh, won- der- ful love, love of|my Sav- ior, Grow-|
 [F,B,][F,B,][F,B,] [F,B,]F,F, [F,,F,][F,,F,][F,,F,] | [B,,F,]6 |] %18
w: ing dear- er and dear- er cah step of|my|
V:4
 x3 | x9 | x9 | x9 | x9 | x9 | x9 | x9 | F,6- x3 || x9 | x9 | x6 | x3 | x9 | x9 | x9 | x4 F,F, x3 | %17
 x6 |] %18

